X:1
T:RVW2/1/176 Sheepskins--Weobley Morris Dance
T:RVW2/1/176 Sheepskins--Weobley Morris Dance
T:Transcribed by Simon Furey and Lewis Jones
C:Transcribed by Simon Furey and Lewis Jones
L:1/8
Q:1/4=84
M:2/4
K:G
V:1 treble 
V:1
|:"^(Editorial suggestion)" B/c/ | dBcA | dB GB/c/ | dBcA | G2 G :| %5
w: He that|hunts the * *|squir- rel, the * *|squir- rel, the *|squir- rel,|
[M:2/4][Q:1/4=100]"^(Editorialsuggestion)" G>AB>c | d2 B>B | c2 A>A | B2 G2 | G>AB>c | d2 B>A | %11
w: He that hunts the|squir- rel must|||||
 c>c A>A | G2- G>D | G>A B>c | e>d !fermata!d>B | B>G !fermata!G>G | A>F"^(a)" !fermata!D>D | %17
w: limb- ly climb a|tree. * And|he that loves a|pret- ty girl, a|pret- ty girl, a|pret- ty girl, and|
 G>A B>c | e>d !fermata!d>"^(b)"d | B>B A>A | G4 || G>A B>c | d2 B>B | c2 A>A | B2 G2 | G>A B>c | %26
w: he that loves a|pret- ty girl must|take her on his|knee.|He that hunts the|squir- rel, the|squir- rel, the|squir- rel,|He that hunts the|
 d2 B>A | c>c A>A | G2- G>D | G>A B>c | e>d !fermata!d>B | B>G !fermata!G>G | A>F"^(a) var." D>D | %33
w: squir- rel must|limb- ly climb a|tree. * And|he that loves a|prett- ty girl, a|pret- ty girl, a|pret- ty girl, and|
 G>A B>c | e>d !fermata!d>"^(b) var."B | B>B A>A | G4 |] %37
w: he that loves a|pret- ty girl must|take her on his|knee.|

